img/person.svg

<svg viewBox="0 0 24 20" xmlns="http://www.w3.org/2000/svg"><g fill="none" fill-rule="evenodd"><path d="m14.91 12.594c.328.135.707.292 1.126.47.423.175.86.356 1.305.542.448.186.9.371 1.358.557.459.185.892.358 1.305.52.41.161.781.303 1.108.431.333.128.599.223.806.291.432.15.782.371 1.049.672.268.297.478.6.634.915.183.363.316.74.399 1.144v1.864h-24v-1.863c.093-.401.231-.781.416-1.143.156-.314.365-.618.634-.915.266-.301.614-.521 1.034-.67.217-.069.501-.167.85-.301.349-.131.741-.284 1.173-.454.432-.17.885-.352 1.364-.548.479-.198.956-.39 1.429-.588.473-.197.918-.379 1.34-.556.425-.178.792-.334 1.113-.469v-1.673c-.019-.078-.052-.197-.099-.36-.047-.161-.095-.325-.149-.491-.058-.195-.13-.404-.217-.628-.295-.529-.533-1.126-.707-1.797-.179-.671-.264-1.381-.264-2.132 0-.989.11-1.825.332-2.509.22-.684.52-1.241.901-1.672.383-.43.827-.743 1.336-.939.51-.196 1.061-.292 1.645-.292.576 0 1.119.094 1.629.286.511.19.957.497 1.344.923.385.427.687.983.909 1.674.222.686.329 1.532.329 2.53 0 .735-.082 1.428-.248 2.088-.172.661-.408 1.254-.703 1.782-.084.243-.159.474-.233.687-.065.188-.117.367-.171.535-.051.173-.077.298-.077.374v1.715" fill="#000"/></g></svg>

<?xml version="1.0" encoding="UTF-8" standalone="no"?>
<svg width="24px" height="20px" viewBox="0 0 24 20" version="1.1" xmlns="http://www.w3.org/2000/svg" xmlns:xlink="http://www.w3.org/1999/xlink" xmlns:sketch="http://www.bohemiancoding.com/sketch/ns">
    <!-- Generator: Sketch 3.0.4 (8053) - http://www.bohemiancoding.com/sketch -->
    <title>person</title>
    <desc>Created with Sketch.</desc>
    <defs></defs>
    <g id="Page-1" stroke="none" stroke-width="1" fill="none" fill-rule="evenodd" sketch:type="MSPage">
        <g id="person" sketch:type="MSArtboardGroup" fill="#000000">
            <path d="M14.91,12.594 C15.238,12.729 15.617,12.886 16.036,13.064 C16.459,13.239 16.896,13.42 17.341,13.606 C17.789,13.792 18.241,13.977 18.699,14.163 C19.158,14.348 19.591,14.521 20.004,14.683 C20.414,14.844 20.785,14.986 21.112,15.114 C21.445,15.242 21.711,15.337 21.918,15.405 C22.35,15.555 22.7,15.776 22.967,16.077 C23.235,16.374 23.445,16.677 23.601,16.992 C23.784,17.355 23.917,17.732 24,18.136 L24,20 L0,20 L0,18.137 C0.093,17.736 0.231,17.356 0.416,16.994 C0.572,16.68 0.781,16.376 1.05,16.079 C1.316,15.778 1.664,15.558 2.084,15.409 C2.301,15.34 2.585,15.242 2.934,15.108 C3.283,14.977 3.675,14.824 4.107,14.654 C4.539,14.484 4.992,14.302 5.471,14.106 C5.95,13.908 6.427,13.716 6.9,13.518 C7.373,13.321 7.818,13.139 8.24,12.962 C8.665,12.784 9.032,12.628 9.353,12.493 L9.353,10.82 C9.334,10.742 9.301,10.623 9.254,10.46 C9.207,10.299 9.159,10.135 9.105,9.969 C9.047,9.774 8.975,9.565 8.888,9.341 C8.593,8.812 8.355,8.215 8.181,7.544 C8.002,6.873 7.917,6.163 7.917,5.412 C7.917,4.423 8.027,3.587 8.249,2.903 C8.469,2.219 8.769,1.662 9.15,1.231 C9.533,0.801 9.977,0.488 10.486,0.292 C10.996,0.096 11.547,0 12.131,0 C12.707,0 13.25,0.094 13.76,0.286 C14.271,0.476 14.717,0.783 15.104,1.209 C15.489,1.636 15.791,2.192 16.013,2.883 C16.235,3.569 16.342,4.415 16.342,5.413 C16.342,6.148 16.26,6.841 16.094,7.501 C15.922,8.162 15.686,8.755 15.391,9.283 C15.307,9.526 15.232,9.757 15.158,9.97 C15.093,10.158 15.041,10.337 14.987,10.505 C14.936,10.678 14.91,10.803 14.91,10.879 L14.91,12.594 Z" id="Imported-Layers" sketch:type="MSShapeGroup"></path>
        </g>
    </g>
</svg>
